svgs/duotone/building-columns.svg

<svg xmlns="http://www.w3.org/2000/svg" viewBox="0 0 512 512"><!--! Font Awesome Pro 6.6.0 by @fontawesome - https://fontawesome.com License - https://fontawesome.com/license (Commercial License) Copyright 2024 Fonticons, Inc. --><path class="fa-secondary" style="fill:var(--fa-secondary-color,inherit);opacity:var(--fa-secondary-opacity,.4);" d="M0 480c0 3.1 .4 6.2 1.4 9.3C5.5 502.8 17.9 512 32 512l448 0c14.1 0 26.5-9.2 30.6-22.7c.9-3.1 1.4-6.2 1.4-9.3c0-10.5-5.2-20.6-14.2-26.6l-48-32c-.6-.4-1.2-.7-1.8-1.1L448 192l-64 0 0 224-40 0 0-224-64 0 0 224-48 0 0-224-64 0 0 224-40 0 0-224-64 0 0 228.3c-.6 .3-1.2 .7-1.7 1.1l-48 32C5.2 459.4 0 469.5 0 480z"/><path class="fa-primary" style="fill:var(--fa-primary-color,inherit);opacity:var(--fa-primary-opacity,1);" d="M268.6 2.6c-8-3.4-17.2-3.4-25.2 0l-224 96c-14 6-21.8 21-18.7 35.8S16.8 160 32 160l0 8c0 13.3 10.7 24 24 24l400 0c13.3 0 24-10.7 24-24l0-8c15.2 0 28.3-10.7 31.3-25.6s-4.8-29.9-18.7-35.8l-224-96zM256 64a32 32 0 1 1 0 64 32 32 0 1 1 0-64z"/></svg>

<svg xmlns="http://www.w3.org/2000/svg" viewBox="0 0 512 512"><!--! Font Awesome Pro 6.4.2 by @fontawesome - https://fontawesome.com License - https://fontawesome.com/license (Commercial License) Copyright 2023 Fonticons, Inc. --><path class="fa-primary" style="fill:var(--fa-primary-color,inherit);opacity:var(--fa-primary-opacity,1);" d="M268.6 2.6c-8-3.4-17.2-3.4-25.2 0l-224 96c-14 6-21.8 21-18.7 35.8S16.8 160 32 160v8c0 13.3 10.7 24 24 24H456c13.3 0 24-10.7 24-24l0-8c15.2 0 28.3-10.7 31.3-25.6s-4.8-29.9-18.7-35.8l-224-96zM256 64a32 32 0 1 1 0 64 32 32 0 1 1 0-64z"/><path class="fa-secondary" style="fill:var(--fa-secondary-color,inherit);opacity:var(--fa-secondary-opacity,.4);" d="M128 192H64V420.3c-.6 .3-1.2 .7-1.7 1.1l-48 32c-11.7 7.8-17 22.4-12.9 35.9S17.9 512 32 512H480c14.1 0 26.5-9.2 30.6-22.7s-1.1-28.1-12.9-35.9l-48-32c-.6-.4-1.2-.7-1.8-1.1V192H384V416H344V192H280V416H232V192H168V416H128V192z"/></svg>
